X:1
T:German Cotillion. EHo.091
T:German Cotillion. EHo.091
T:Mozart
C:Mozart
L:1/8
Q:1/4=70
M:2/4
K:E
V:1 treble 
V:1
 e(B/A/) G/A/B | (c/a/)f/e/ (d/e/)f | eB/A/ (G/A/)B | c/a/f/d/ ee :: af/f/ ge/e/ | %5
 (d/e/)(f/e/) (d/e/).f | af/f/ ge/e/ | c/a/f/d/ ee ::"^p" e(f/e/) (e/d/).d/.d/ | .e/.c/(B/A/) AG | %10
 G/>A/B c/>d/e/e/ | c/a/f/d/ ee :| %12

